cssgg/arrows-merge-alt-v.svg

<svg
  width="24"
  height="24"
  viewBox="0 0 24 24"
  fill="none"
  xmlns="http://www.w3.org/2000/svg"
>
  <path
    d="M18 1.5033V3.5033L13 3.5033V7.6749L14.8285 5.84644L16.2427 7.26066L12 11.5033L7.75739 7.26066L9.17161 5.84644L11 7.67483V3.5033L6 3.5033V1.5033L18 1.5033Z"
    fill="currentColor"
  />
  <path
    d="M18 20.4967V22.4967H6V20.4967H11V16.3251L9.17154 18.1536L7.75732 16.7393L12 12.4967L16.2426 16.7393L14.8284 18.1536L13 16.3252V20.4967H18Z"
    fill="currentColor"
  />
</svg>

<svg viewBox="0 0 24 24" xmlns="http://www.w3.org/2000/svg"><g><path d="M18 1.5v2h-5v4.17l1.82-1.83 1.41 1.41 -4.25 4.24 -4.25-4.25 1.41-1.42 1.82 1.82V3.46h-5v-2h12Z"/><path d="M18 20.49v2H6v-2h5v-4.18l-1.83 1.82 -1.42-1.42 4.24-4.25 4.24 4.24 -1.42 1.41 -1.83-1.83v4.17h5Z"/></g></svg>
